X: 0
T: velkommen-igen-guds-engle-smaa
L: 1/4
M: 4/4
V: P1 name="SONG_008"
%%MIDI program 1 0
V: P2 name="SONG_008-2"
%%MIDI program 2 0
V: P3 name="SONG_008-3"
%%MIDI program 3 32
V: P4 name="SONG_008-4"
%%MIDI program 4 11
V: P5 name="SONG_008-5"
%%MIDI program 5 88
V: P6 name="SONG_008-6"
%%MIDI program 6 88
V: P7 name="SONG_008-7"
%%MIDI program 7 65
V: P8 name="SONG_008-8"
%%MIDI program 8 65
V: P9 name="SONG_008-9"
%%MIDI program 9 65
V: P10 name="SONG_008-10"
%%MIDI program 10 61
V: P11 name="SONG_008-11"
%%MIDI program 11 57
V: P12 name="SONG_008-12"
%%MIDI program 12 32
V: P13 name="SONG_008-13"
%%MIDI program 13 32
V: P14 name="SONG_008-14"
%%MIDI program 14 120
V: P15 name="Tempo Track"
%%MIDI program 15 -1
K: C
[V: P1]  z4 | [M: 4/4]  D3/- D/4D/4z3/z/4 [D/4A/4] |z2z3/4 [D/4^F/4]z3/4 [D/4F/4] |z3z3/4 ^F/4 |z3/z/4 [D/4^F/4d/4]z2 | [D3/-A3/-] [D/4A/4][D/4A/4]z3/z/4 [D/4A/4] |z2z3/4 [G/4B/4]z3/4 [G/4B/4] |z3z3/4 [^F/4A/4] |z3/z/4 [D/4-d/4-] [Dd]z | [D^FA]z3/4 [D/4F/4]z3/z/4 [D/4-F/4-A/4-] | [D^FA]z3/z/4 [D/4F/4A/4]z3/4 [F/4-A/4-] | [^FA]z2z3/4 [B,/4^G/4B/4] |z3/z/4 A/4- A/A/8[^C3/8E3/8]z | Gz3/4 D/4z3/z/4 [D/4^F/4] |z2z3/4 [D/4^F/4A/4]z3/4 [D/4F/4] |z2z/8 E3/4-E/8z |z3/z/4 A/4- Az | z4 |z2z3/4 [D/4^F/4]z3/4 [D/4-F/4-] | [D^F]z2z3/4 [F/4A/4] |z3/z/4 [G/4-B/4-g/4-] [G2B2g2] | [G3/-B3/-] [G/4B/4]D/4z3/z/4 [D/4-^F/4-] | [D2^F2]z3/4 [D/4F/4A/4]z3/4 [B,/4D/4] | z4 |z3/z/4 [D/4^F/4d/4]z2 | [D3/-^F3/-] [D/4F/4][D/4F/4]z3/z/4 [D/4F/4] | [D3/-^F3/-] [D/4F/4][D/4F/4]z2 | Dz3/z/4 [D/4^F/4]z/z/8 [D3/8-F3/8-] | [D^F]z3/z/8 [D/8F/8]A/4- A/8A/-A/8[D/4F/4A/4d/4] |z3/z/4 [B/4g/4]z3/z/8 [G3/8-B3/8-] | [G2B2]z/z/8 [D3/8^F3/8A3/8d3/8]z | [D/8^F/8]A3/4-A/8 Az3/4 [D/4F/4]z |z2z/z/8 [G3/8-B3/8-] [G3/4B3/4][G/4B/4g/4] |z3/z/4 [^F/4d/4]z3/z/8 [D3/8F3/8] |z2z/z/8 [D3/8d3/8]z | Dz3/z/4 [D/4^F/4A/4]z/z/8 [D3/8-F3/8-A3/8-] | [D^FA]z3/z/8 [D/8F/8]A/4- A/8A/-A/8[D/4F/4A/4d/4] |z3/z/4 [^F/4A/4d/4]z3/z/8 [E/8^G/8][B,/4-B/4-] | [B,2B2]z/z/8 [B,3/8B3/8]z |z3/z/8 G3/8z3/z/8 [D3/8-^F3/8-] | [D2^F2]z/z/8 D/8A/4- A/8A/-A/8[D/4A/4d/4] |z3/z/4 [^F/4d/4]z3/z/8 [D/8F/8]A/4 |z2z/z/8 [^C3/8E3/8]z | [^CE]z3 |z/z/8 [E3/8e3/8a3/8]z2 [E/-G/-][E/8G/8]G3/8- | Gz3/4 d/4z3/z/8 D/8A/4- | A2z/z/8 [D3/8d3/8]z | [D/8^F/8]A3/4-A/8z3/z/4 [G/4B/4]z/z/8 [G3/8-B3/8-] | [GB]z3/z/8 B,3/8z3/4 [D/4^F/4d/4] |z3/z/4 [^F/4A/4d/4]z3/z/8 [D/8F/8]A/4- | A2z/z/8 [G3/8B3/8g3/8]z | D2z3/4 [D/4^F/4A/4]z/z/8 [D3/8-F3/8-A3/8-] | [D2^F2A2] [D/F/A/][D/8F/8A/8][D/8F/8]A/4- A/8A/-A/8[D/4F/4A/4d/4] |z3/z/4 [^F/4d/4]z3/z/8 [D/8F/8]A/4- | A2z/z/8 [D3/8^F3/8A3/8d3/8]z | [D/8^F/8]A3/4-A/8z2z/z/8 [D3/8-F3/8-A3/8-] | [D2^F2A2] [D/F/A/][D/8F/8A/8][D/8F/8]A/4- A/8A/-A/8[D/4F/4A/4d/4] | z4|]
[V: P2]  z4 | [M: 4/4] z2z3/4 A,/4z3/4 A,/4 | z4 | z4 | z4 | A,2z3/4 A,/4z3/4 A,/4 | z4 |z3/z/4 A,/4z3/z/4 A,/4 | z4 | A,z3/z/4 A,/4z3/4 A,/4- | A,z3/z/4 A,/4z | z4 |z3/z/4 A,/4- A,/A,/8G,3/8z | z4 |z2z3/4 A,/4z3/4 A,/4 |z2z/8 G,/-G,/8A,,/4z/8 [G,/-A,/-][G,/8A,/8][E,/4-G,/4-A,/4-] | [E,G,A,]z3/4 A,/4- A,/A,/8G,3/8z | [G,A,]z3/4 A,/4z2 | z4 |z3/4 A,/4z3/4 A,/4z3/z/4 A,/4 | z4 | z4 |z2z3/4 A,/4z3/4 ^F,/4 | z4 |z3/z/4 A,/4z2 | z4 | z4 | z4 | z4 | z4 | z4 |z/8 A,3/4-A,/8 A,z3/z/8 A,3/8- | A,2z2 | z4 | z4 |z2z3/4 A,/4z3/4 A,/4- | A,z3 |z3/z/4 A,/4z2 | z4 | A,3/- A,/8G,3/8z2 | z4 |z3z3/4 A,/4 |z2z/z/8 G,3/8z | [G,A,]z3 |z/z/8 G,3/8z3/z/8 A,3/8z/8 A,/A,3/8- | A,z2z3/4 A,/4- | A,2z2 |z/8 A,3/4-A,/8z3 | z4 |z3/z/4 A,/4z3/z/4 A,/4- | A,2z2 |z2z3/4 A,/4z3/4 A,/4- | A,3z |z3z3/4 A,/4- | A,2z2 |z/8 A,3/4-A,/8z3/z/4 A,/4z3/4 A,/4- | A,3z | z4|]
[V: P3]  z4 | [M: 4/4]  D,, D,, D,, D,,3/4-D,,/8D,,/8 | D,,3/4^F,,,/4 D,, D,, D,,3/4-D,,/8G,,,/8 | G,,, G,,,/-G,,,/8G,,,3/8 G,,, G,,/-G,,/8D,,3/8 | D,, ^F,,,3/4D,,/8D,,/8 D,, A,,, | D,, A,,, D,, D,, | G,,/8G,,,/-G,,,/8B,,,/4 G,, G,,, G,,,3/4-G,,,/8^F,,,/8 | D,,3/4D,,/4 ^F,,, A,,, D,, | D,, D,,3/4D,,/4 D,,3/8D,,/-D,,/8 A,,, | D,,3/8D,,/-D,,/8 D,, D,,/4D,,3/4 D,, | A,,,/4D,,/^F,,,/4 D,, D,,/8D,,3/4-D,,/8 A,,,3/8F,,,3/8A,,,/4 | ^F,,,/8E,,,3/4-E,,,/8 E,,, E,,, E,, | B,,,/4A,,,3/4 A,,,3/4A,,,/4 A,,,/8A,,,/8A,,,/^C,,/4 G,,, | G,,,/8D,,3/4-D,,/8 D,, D,,/8D,,3/4-D,,/8 D,, | D,,3/4^F,,,/4 D,, D,, A,,, | A,,, A,,, A,,,/8A,,,3/4-A,,,/8 G,,, | A,,,/4A,,,3/4 A,,,3/4A,,,/4 A,,,/4A,,,/A,,,/4 G,,,3/4A,,,/4 | A,,,3/8A,,,/-A,,,/8 A,,, A,,,/A,,,/ F,,,3/4-F,,,/8G,,/8 | G,,,3/8D,,3/8D,,/4 D,, D,,/D,,/ D,, | D,,3/4D,,/4 ^F,,, A,,, D,, | A,,,3/4-A,,,/8G,,,/8 B,,,3/4G,,/4 G,,, G,,, | G,,, G,,,/8D,,3/4-D,,/8 D,, D,, | D,,3/4^F,,,/4 D,,/8D,,3/4-D,,/8 D,,3/4-D,,/8D,,/8 D,,/4D,,/F,,,/8G,,,/8 | G,,, B,,,3/8D,,/-D,,/8 D,, D,,3/4D,,/8D,,/8 | A,,, ^F,,,3/4D,,/4 F,,/8D,,3/4-D,,/8 D,, | D,, D,, D,, D,, | D,, D,, ^F,,,/4D,,3/4 D,, | D,,/4D,,/A,,/4 D,, G,,,3/8D,,3/8D,,/4 ^G,,, | D,,/D,,/ B,,, C,, ^C,, | D,,3/4D,,/8G,,/8 B,, C, ^C, | G,,3/4B,,/4 E,,/8^F,,/8D,,3/4 C,, ^C,, | D,,3/4A,,/4 ^F,,,/D,,/ G,,, ^G,,,/A,,,/ | A,,, ^F,,,/G,,/ =F,, ^F,, | G,,3/4G,,/4 B,,/^F,,/8D,,3/8 G,, ^G,,3/4-G,,/8D,,/8 | A,,3/4^F,,/4 B,,,3/4-B,,,/8D,,/8 C,, ^C,, | D,,/4D,,/8D,,3/8A,,/4 ^F,,, G,,,/4D,,/8D,,/-D,,/8 ^G,,, | A,,,3/8D,,/8D,,/ B,,, C,,/4^F,,/4D,,/ ^C,, | D,,3/4D,,/4 ^F,, G,, E,, | B,,3/4^G,,/4 ^C,, D,,3/8B,,,/-B,,,/8 ^A,,,/4=A,,,3/4 | A,,,3/4A,,,/4 A,,,3/8A,,,/-A,,,/8 D,,3/4A,,,/8G,,,/8 ^C,,/D,,/ | D,, B,,,/-B,,,/8D,,3/8 C,,3/8D,,/-D,,/8 ^C,,3/4D,,/4 | D,,/8D,,/-D,,/8D,,/4 ^F,,3/4D,,/4 G,, ^G,, | A,,,3/4A,,,/4 ^F,,, G,,,/8A,,,/-A,,,/8^C,,/4 G,,,3/4A,,,/4 | A,,,/4^C,,/8A,,,3/8E,,/4 C,, D,,/A,,,/4C,,/4 ^D,,3/4C,,/4 | E,,3/8^C,,/4A,,,3/8 ^F,,, G,,,3/4-G,,,/8A,,,/8 ^G,,, | A,,,3/4G,,/8D,,/8 D,, G,, ^G,,/8D,,3/4-D,,/8 | A,,3/4D,,/4 B,,,3/4D,,/4 C,, ^C,,3/4D,,/8D,,/8 | D,,3/4A,,/4 D,, G,,,3/8G,,,/-G,,,/8 ^C,, | G,,,/B,,,/ ^G,,, A,,,3/4-A,,,/8^F,,/8 D,, | D,,3/4D,,/4 ^F,,/8D,,3/4-D,,/8 G,, ^G,, | A,,3/4^F,,/4 B,,,/-B,,,/8G,,3/8 =F,, ^F,,3/4D,,/4 | D,,3/4D,,/4 D,, G,,,3/8D,,/4D,,3/8 ^G,,, | A,,, B,,, C,, ^C,, | D,,3/4D,,/4 ^F,,/4D,,3/4 G,, ^G,,/4D,,3/4 | A,,3/4^F,,/4 B,,, C,, ^C,, | D,,/-D,,/8A,,,/8A,,,/4 A,,, D,, ^D,,3/8=D,,/-D,,/8 | A,,, B,,, C,, ^C,, | D,,3/4D,,/4z3|]
[V: P4]  z4 | [M: 4/4]  z4 |z2z3/4 D/4z3/4 [D/4^F/4] | z4 |z/z/8 d3/8- dz2 | z4 |z2z3/4 G/4z3/4 [G/4B/4] | z4 |z/z/8 d3/8- dz2 |z3z/8 ^F3/4-F/8 |z2z/z/8 A/8D/4z3/4 [^F/4-A/4-] | [^FA]z3 |z/z/8 A3/8- Az2 |z3z/8 ^F3/4-F/8 |z2z/z/8 A/8D/4z3/4 [A,/4D/4^F/4] |z3z3/4 A/4 |z/z/8 A3/8- Az2 |z2z/z/8 [G,3/8A,3/8]z/z/8 [G,3/8A,3/8] |z2z3/4 D/4z3/4 [D/4-^F/4-] | [D^F]z3 |z/z/8 [d/8a/8]A/4z3 |z3z/8 ^F3/4-F/8 |z2z/z/8 A/8D/4z3/4 [^F,/4B,/4D/4] | z4 |z/z/8 [d/8a/8]A/4- Az2 |z3z/8 ^F3/4-F/8 |z2z/z/8 D/8d/4- d | z4 | z4 |z/z/8 D/8[^F/4A/4]zz/8 [g/-b/-][g/8b/8][g/4b/4]z/4 [B/g/][g/4b/4] |z2z3/4 [d/4^f/4a/4]z | z4 | z4 |z/z/8 G/8B/4zz/8 [d/-^f/-][d/8f/8][d/4f/4]z/4 [F/d/][d/4f/4] |z2z3/4 d/4z | z4 | z4 |z/z/8 D/8[^F/4A/4]zz/8 [A/-d/-f/-][A/8d/8f/8][A/8d/8f/8][^G/8B/8]z/8 B/8[G/e/][B/4e/4g/4] |z2z3/4 B/4z |z2z/z/8 [G,3/8A,3/8]z | z4 |z/z/8 D/8^F/4zz/8 [A/-d/-f/-][A/8d/8f/8][A/4d/4f/4]z/8 A/8[F/d/][A/4d/4f/4] |z2z3/8 ^C3/8E/4z |z/4 [^c3/4e3/4]z3/z/8 [G,3/8A,3/8C3/8]z/z/8 [G,3/8A,3/8C3/8] |z3z3/4 [A,/4-E/4-A/4-] | [A,/E/A/][A,/8E/8A/8]G3/8zz/8 d/-d/8d/4z/8 A/8d/[A/4d/4] |z2z3/4 d/4z | z4 | z4 |z/z/8 D/8^F/4zz/8 [A/-d/-f/-][A/8d/8f/8][A/4d/4f/4]z/8 A/8[F/d/][A/4d/4f/4] |z2z3/4 [g/4b/4]z | z4 | z4 |z/z/8 D/8[^F/4A/4]zz/8 [d/-f/-][d/8f/8][d/4f/4]z/4 [F/d/][A/4d/4f/4] |z2z3/4 [d/4^f/4a/4]z | z4 | z4 |z/z/8 D/8[^F/4A/4]z3|]
[V: P5]  z4 | [M: 4/4] z3/z/4 D/4- D ^F3/4-F/8[D/8-F/8-A/8-] | [D3/^F3/A3/] [D/4F/4A/4]D/4- D3/ D/4B/4- | B3/ G/- G3/ A/- | A2 A/A/8A3/8- A/A/8d3/8- | d3/ d/4^c/8E/8- E2 | B3/4-B/8^c/8- c3/4d/4- d3/4d/8B/8- B3/4A/4- | A2 A3/4A/8G/8- G | [D2^F2]z/4 [D3/4-F3/4-A3/4-] [DFA] |z/4 ^F3/4- F F/8D3/4-D/8 D/8F3/4-F/8 | ^F/8[D3/4-A3/4-][D/8A/8] [D2A2] D/8A3/4-A/8 |z/8 B3/4-B/8 B B2 | A2z/8 A3/4-A/8 A |z/8 d3/4-d/8 d ^c2 | B3/- B/4A/4- A2 | [E3^c3]z/8 [E3/4-B3/4-][E/8B/8] |z/8 [E3/4-A3/4-][E/8A/8] [EA]z/4 [D3/4E3/4]z |z/4 G/8^C/-C/8 C C3/8C/8G/z3/8 C/8G/- | G3/8^F/8D/- D3/ [D/-A/-] [DA] | [D/A/][D/8A/8]c3/8- c3/ c/8c3/8- c | c3/4B/4- B2 ^c- | ^c d2 ^F- | ^F A2- A/4D3/4- | D D/4^F3/4- F2 | ^F3/4E/4- E3/4E/8D/8- D2 | D4 | D2z/8 A/8D3/4- D |z/4 [D3/4-^F3/4-] [D2F2]z/4 F3/4- | ^F3/8[D/-F/-A/-][D/8F/8A/8] [D3/F3/A3/] [D/8F/8]A3/8- A | A3/4[G/4-B/4-] [G2B2] [D-G-] | [DG] ^F/8A3/4-A/8 A2 |z/4 A3/4- A3/8d/-d/8 d d3/8[E/-^c/-][E/8c/8] | [E3/^c3/] B/- B3/8c/-c/8 c/4d3/4- | d3/8B/-B/8 B/A/- A2 | A3/4G/4- G3/4G/8[D/8-^F/8-] [D2F2] |z/8 [D/8^F/8]A3/4- A A/4F3/4- F | ^F3/8D/-D/8 D/F/- F/A/- A | A3/4[D/4-^F/4-A/4-] [D3/F3/A3/] [D3/8F3/8A3/8]B/8- B | B B2z/4 [^C3/4-A3/4-] | [^CA] [C/4A/4]C/8A/-A/8 A3/ d/- | d3/ ^c/- c3/ c/8B3/8- | B3/ B/8A3/8- A3/ A3/8[E/8-^c/8-] | [E3^c3]z/8 B3/4-B/8 |z/8 [E3/4-A3/4-][E/8A/8] [E3/A3/] E/- E | E/G/8^C3/8- C3/ C3/8[C/8-G/8-] [C3/4G3/4]C/8G/8- | G3/4G/8^F/8 D2 D/8A3/4-A/8 | A3/ A/8c3/8- c3/ c/4c/4- | c2 c/4[G3/4-B3/4-] [GB] | [G/B/][G/8B/8][G3/8-^c3/8-] [G3/c3/] [G3/8c3/8]d/8 G- | Gz/8 ^F3/4-F/8 F F/4A3/4- | A3/ D/- D3/ D/4[D/4-^F/4-] | [D3^F3]z/z/8 ^C/8E/4- | E D3- | D D/8^F3/4-F/8 F2 | ^F3/ F/4G/4- G2 | G/[^C/-E/-] [C2E2]z3/8 D/-D/8 | D4 | z4|]
[V: P6]  z4 | [M: 4/4]  z4 | z4 | z4 | z4 | z4 |z3/z3/8 D,/8- D,2 |z3/z/8 C,3/8- C,2 |z2z/4 C,3/4- C, | z4 |z2z/8 C,3/4-C,/8 C, | z4 | z4 | z4 |z3/z/4 C,/4- C,z | z4 | z4 | z4 | z4 |z2z/z/8 C,3/8- C, | C,z3 | z4 |zz/8 C,3/4-C,/8 C,z |z3z3/4 C,/4- | C,z3 | z4 | z4 | z4 |z2z/z/8 C,3/8- C, | C,z3/z3/8 D,/8- D, | D,z2z/4 C,3/4- | C,z3 |z3z3/8 D,/-D,/8 | D,z3 | z4 | z4 | z4 | z4 | z4 | z4 | z4 | z4 | z4 | z4 | z4 |z3z/8 C,3/4-C,/8 | C,z2z3/4 C,/4- | C,2z2 |z/z/8 D,3/8- D,z2 |z3z/4 C,3/4- | C,2z2 |z2z3/8 C,/-C,/8 C, |z3z/8 C,3/4-C,/8 | C,z3 | z4 | z4 | z4 | z4|]
[V: P7]  z4 | [M: 4/4] zz/8 D3/4-D/8z2 |z3/4 D/4zz/8 D/-D/8[^F/4d/4] D/-D/8[F/4d/4]g/8- | g3/ g/8[B3/8-g3/8-] [Bg]z |z/z/8 D3/8zz/8 [D/-A/-][D/8A/8][A,/4^F/4]z |z/8 A,3/4-A,/8z/8 D/-D/8A,/4z2 |z3/4 G/4zz/8 G/-G/8[B/4g/4] G/-G/8[B/4g/4]^f/8 | [^F3/4d3/4][F/4-d/4-] [F2d2]z |z/z/8 D3/8zz/8 D/4[D3/8A3/8][A,/4^F/4]z | ^F/8A,/4F/-F/8 F/8D/-D/8F/4z2 |z3/4 D/4zz/8 D/8[D/A/][^F/4d/4] D |z/8 e3/4-e/8 e [^Ge]z |z/z/8 A,3/8zz/8 A,3/4-A,/8z |zz/8 D3/4-D/8z2 |z3/4 [D/4A/4]z A/8D/-D/8[^F/4d/4] D/-D/8[F3/8d3/8] | A3z/8 [G3/4-A3/4-][G/8A/8] | [G/A/][G/8A/8]A,3/8zz/8 A,3/4-A,/8z |zz/8 A,3/4-A,/8z3/z/8 [A,3/8G3/8] |z3/4 D/4zz/8 D3/8D/4[^F/4d/4] D/-D/8[F3/8-d3/8-] | [^F3/4d3/4][F/4-d/4-] [F2d2]z |z/z/8 [D3/8A3/8]zz/8 G/-G/8B/4z | B- B/8D3/4-D/8z2 |z3/4 D/4z A/8D/-D/8[^F/8d/8][F/8d/8] D3/4[B/4-g/4-] | [Bg] [B3/8g3/8]d/-d/8 dz |z/z/8 [D3/8A3/8]zz/8 D/-D/8^F/4z | ^F- F/8D/-D/8F/4z2 | ^F- F/8D/-D/8F/4z2 | d/4[A3/4-d3/4-] [Ad] [A3/8d3/8][A3/8d3/8]d/4- d | d/[A/-d/-] [Ad] [d/-^f/-][d/8f/8][F3/8A3/8]z/z/8 [A3/8d3/8] | z4 |z2z/8 [D/-^F/-][D/8F/8][F/4A/4]z | [A3/d3/] d/- d3/ A/- | A3/ g/ [B/-g/-][B/8g/8]B3/8z/z/8 g3/8 | z4 |z2z/8 D3/4-D/8z | d/4[A/8d/8][A/-d/-][A/8d/8] [Ad] [A/4d/4]d/8[A/-d/-][A/8d/8] [Ad] | [A3/8d3/8]d/8[A/-d/-] [Ad] [d/4^f/4]f/4f/8[F3/8A3/8]z/z/8 [A3/8d3/8] |z2z3/4z/8 B,/8z |z2z/8 [E/4^G/4]B,/-B,/8z | A- A3/8[G/-A/-][G/8A/8] [G3/4A3/4]g/4- g/d/- | d3/ d/8[A3/8d3/8] [d3/8^f3/8]d/4A3/8z/z/8 [A/8d/8][A/4d/4] | z4 |z2z/8 A,/8G,3/8A,3/8z | [G3/8A3/8][E/-A/-][E/8A/8] [E3/A3/] [G/-A/-] [GA] | [G/A/][G/8A/8]A3/8- A A3/4-A/8^F/8z3/4 E/4 | z4 |z2z/8 D3/4-D/8z | [A3/4-d3/4-][A/8d/8][A/8-d/8-] [Ad] [A3/8d3/8]g/-g/8 g | g/B/- B Bz/z/8 d3/8 | z4 |z2z/8 [G/-B/-][G/8B/8]B/4z | d2- d3/8[A/4d/4][A3/8-d3/8-] [Ad] | [A2d2] [d/-^f/-][d/8f/8][F3/8A3/8]z/z/8 [A3/8d3/8] | z4 |z2z/8 [D/-^F/-][D/8F/8][F/4A/4]z | [A/-d/-][A/8d/8]A3/8- A2 A3/8[A/-d/-][A/8d/8] | [A2d2] [d/-^f/-][d/8f/8][F3/8A3/8]z/z/8 [A3/8d3/8] | z4|]
[V: P8]  z4 | [M: 4/4]  D,3/- D,/4D,/8D,/8z2 |z3/4 D,/4zz/8 ^F,3/4-F,/8z/8 F,3/4-F,/8 | z4 |z/z/8 D,3/8z3 | D,3/- D,/4D,/4z2 |z3/4 G,/4zz/8 B,3/4-B,/8z/8 B,3/4-B,/8 |z3/4 A,/4- A,2z |z/z/8 D,3/8z3 | D,3/8D,/-D,/8 D,3/4D,/4z2 |z3/4 D,/4zz/8 ^F,/8D,/A,/4z/8 F,3/4-F,/8 |z2 B,z | z4 | G,/8D,3/4-D,/8 D,3/4D,/4z2 |z3/4 D,/4zz/8 ^F,/-F,/8A,/4z/8 F,/-F,/8A,/4 | z4 | z4 | z4 |z3/4 D,/4z3/ D,/z/8 ^F,3/4-F,/8 |z3/4 A,/4- A,2z |z/z/8 D,3/8z3 | G,3/- G,/4D,/4z2 |z3/4 D,/4zz/8 D,/-D,/8A,/4z/8 D,3/4-D,/8 | z4 |z/z/8 D,3/8z3 | D,3/- D,/4D,/4z2 | D,3/- D,/4D,/4z2 | D,/4D,3/4- D, D,3/8[D,3/8^F3/8][D,/4-F/4-] [D,F] | [D,/^F/][D,/-F/-] [D,/F/][D,/8F/8][E,/4G/4][=F,/8^G/8] [^F,/-=G,/-A/-][F,/8G,/8A/8]D3/8z/z/8 [D,3/8F3/8] | z4 |z3/z/4 D,/4z/8 [A,/-D/-][A,/8D/8][A,/4D/4]z | [D,3/^F3/] [D,/-F/-] [D,2F2] |z3/ [G,/8B/8][A,/4c/4][^A,/8^c/8] [B,/-=C/-][B,/8C/8]G3/8z/z/8 [G,3/8B3/8] | z4 |z3/z/4 ^F,/4z/8 D/-D/8D/4z | D,/4D,/8[D,/-^F/-][D,/8F/8] [D,F] [D,/4F/4][D,/8F/8][D,/-F/-][D,/8F/8] [D,F] | [D,3/8^F3/8][D,/8F/8][D,/-F/-] [D,/F/][D,/8F/8][E,/4G/4][=F,/8^G/8] [^F,/4=G,/4A/4]B,/4[D,/8A/8]D3/8z/z/8 [D,3/8F3/8] |z2z3/4z/8 ^G,/8z |z3/z/4 ^G,/4z/8 [B,/4E/4]B,3/8B,/4z |z2z3/4 G,/4- G,/[D,/-^F/-] | [D,3/^F3/] [D,/8F/8][D,/8F/8][E,/8G/8][=F,/8^G/8] [^F,3/8=G,3/8A3/8]A/4D3/8z/z/8 D,/8[D,/4F/4] | z4 |z2z/8 A,/8G,3/8A,3/8z | ^C3/8C/-C/8 C3/ C/- C | ^Cz/z/8 D/4^D/8 =D,/-D,/8A,/4[^F,/8A,/8]z3/4 A,/4 | z4 |z2z/8 D/-D/8D/4z | [D,3/4-^F3/4-][D,/8F/8]D,/8- D, D,3/8[G,/-B/-][G,/8B/8] [G,B] | [G,B]z/z/8 E/4[D,/8F/8] E,/-E,/8B,/4^F/8z/z/8 [D,3/8F3/8] | z4 |z3/z/4 G,/4z/8 G/-G/8G/4z | D,2- D,3/8D,/4[D,3/8-^F3/8-] [D,F] | [D,3/^F3/] [D,/8F/8][E,/4G/4][=F,/8^G/8] [^F,/-=G,/-A/-][F,/8G,/8A/8]D3/8z/z/8 [D,3/8F3/8] | z4 |z3/z/4 ^F,/4z/8 [A,/-D/-][A,/8D/8][A,/4D/4]z | [D,^F]z2z3/8 [D,/-F/-][D,/8F/8] | [D,3/^F3/] [D,/8F/8][E,/4G/4][=F,/8^G/8] [^F,/-=G,/-A/-][F,/8G,/8A/8]D3/8z/z/8 [D,3/8F3/8] | z4|]
[V: P9]  z4 | [M: 4/4]  z4 | z4 | z4 |z2z/8 D,,/-D,,/8D,,/4z |zz/8 A,,3/4-A,,/8z2 | z4 | z4 |z2z3/8 D,,3/8D,,/4z | z4 | z4 | z4 |z/z/8 A,,3/8z3 | z4 | z4 | z4 |z/z/8 A,,3/8z3 |z3/8 A,,/-A,,/8 A,,3/4A,,/4z2 | z4 | z4 |z2z3/4 G,,/4z | z4 | z4 | z4 |z2z3/4 D,,/4z | z4 | z4 | z4 |z2z/z/8 A,,3/8z | z4 | z4 |z3z/ A,,/- | A,,2z2 | z4 | z4 | z4 |z2z/z/8 A,,3/8z | z4 | z4 | A,,2z2 |z2z/z/8 D,,3/8z | z4 | z4 |z3/8 A,,/-A,,/8 A,,2z |z/z/8 A,,3/8- A,,/A,,/8B,,/4C,/8z3/z/4 A,,/4 | z4 | z4 | z4 |z/ B,,/- B,,/B,,/8^C,3/8z2 | z4 | z4 | z4 |z2z/z/8 A,,3/8z | z4 | z4 |z/z/8 A,,3/8- A,,3 |z2z/z/8 A,,3/8z | z4|]
[V: P10]  z4 | [M: 4/4] z3z/8 [A/-d/-][A/8d/8][A/8d/8][^F/8d/8] | z4 |z3/z/4 B/4- B3/ B/8^F3/8- | ^F3/ F3/8[F/8-A/8-] [F2A2] |z3z/8 [A/-d/-][A/8d/8][A/4d/4] | z4 |z3/z/4 [^F/4-A/4-] [F2A2] |z2z3/8 [^F/-A/-][F/8A/8] [FA] |z3z/8 [^F/-A/-d/-][F/8A/8d/8][F/4A/4d/4] | z4 |z2 [^G2-B2-] | [^GB]zz/8 ^C3/4-C/8z |z3z/8 [^F/-d/-][F/8d/8][F/4d/4] | z4 |z2z/8 [E3/4-G3/4-A3/4-][E/8G/8A/8]z/8 [E3/4-G3/4-A3/4-][E/8G/8A/8] |z/8 [E3/4-G3/4-A3/4-][E/8G/8A/8]z3 | G/8A,3/4-A,/8z3/ [A,/-G/-] [A,3/4G3/4][A,/8G/8]g/8 | z4 |z3/z/4 [^F/4-A/4-] [F2A2] | [^F3/4A3/4][F/8A/8]B/8- B3 |z3z/8 [^F/-d/-][F/8d/8][F/4d/4] | z4 |z3z3/4 A/8[^F/8-A/8-] | [^F2A2] F2 |z3z/8 [^F/-d/-][F/8d/8][F/4d/4] |z3z/8 d/-d/8d/4 | d/4[A3/4-d3/4-] [Ad] [A3/8d3/8][A3/8d3/8]d/4- d | d/[A/-d/-] [Ad] [d/-^f/-][d/8f/8][F3/8A3/8]z/z/8 [A3/8d3/8] | z4 |z2z/8 [D/-^F/-][D/8F/8][F/4A/4]z | [A3/d3/] d/- d3/ A/- | A3/ g/ [g/-b/-][g/8b/8]B3/8z/z/8 g3/8 | z4 |z2z/8 D3/4-D/8z | d/4[A/8d/8][A/-d/-][A/8d/8] [Ad] [A/4d/4]d/8[A/-d/-][A/8d/8] [Ad] | [A3/8d3/8]d/8[A/-d/-] [Ad] [d/4^f/4]f/4f/8[F3/8A3/8]z/z/8 [A3/8d3/8] | z4 |z2z/8 [E/4^G/4]B,/-B,/8z | A- A3/8E/-E/8 E3/4g/4- g/d/- | d3/ d/8[A3/8d3/8] [d3/8^f3/8]d/4A3/8z/z/8 [A/8d/8][A/4d/4] | z4 |z2z/8 A,/8G,3/8A,3/8- A, | E3/8[E/-A/-][E/8A/8] [E3/A3/] E/- E | E/E/8A3/8- A A3/4-A/8A,/8z/z/8 G,3/8 | z4 |z2z/8 D3/4-D/8z | [A3/4-d3/4-][A/8d/8][A/8-d/8-] [Ad] [A3/8d3/8]g/-g/8 g | g/B/- B Bz/z/8 d3/8 | z4 |z2z/8 [G/-B/-][G/8B/8]B/4z | d2- d3/8[A/4d/4][A3/8-d3/8-] [Ad] | [A2d2] [d/-^f/-][d/8f/8][F3/8A3/8]z/z/8 [A3/8d3/8] | z4 |z2z/8 [D/-^F/-][D/8F/8][F/4A/4]z | [A/-d/-][A/8d/8]A3/8- A2 A3/8[A/-d/-][A/8d/8] | [A2d2] [d/-^f/-][d/8f/8][F3/8A3/8]z/z/8 [A3/8d3/8] | z4|]
[V: P11]  z4 | [M: 4/4]  z4 | z4 | z4 | z4 | z4 | z4 | z4 | z4 | z4 | z4 | z4 | z4 | z4 | z4 | z4 | z4 | z4 | z4 | z4 | z4 | z4 | z4 | z4 | z4 | z4 | z4 |z/4 A,3/4- A, A,3/8A,/-A,/8z |z/ A,/- A,/A,/8B,/8C/4 [^C/-D/-][C/8D/8]^F,3/8z/z/8 A,3/8 | z4 |z3/z/4 D/4z/8 F/8^F/A/4z | A,2z2 |z3/z/8 E/8F/4 [^F/-G/-][F/8G/8]B,3/8z | z4 |z3/z/4 D/4z/8 F3/4-F/8z |z/4 A,/8A,/-A,/8 A, A,3/8A,/-A,/8 A, | A,/A,/- A,/A,/8B,/8C/4 [^C/4D/4]^F/4D/8D,3/8z/z/8 A,3/8 | z4 |z3/z/4 E/4z/8 G/8^G3/4z | z4 |z3/z/8 [A,/8B,/8]C/4 [^C3/8D3/8]D/-D/8z/z/8 A,/8A,/4 | z4 |z3/z/4 A,/4z/8 C3/4-C/8z |z3/8 A,,/-A,,/8 A,,2z |z3/z/8 ^F,/8G,/4 [^G,A,]z | z4 |z3/z/4 D/4z/8 F3/4-F/8z | A,3/4-A,/8A,/8- A,2z |z3/z/8 ^G,/8A,/4 [^A,B,]z | z4 |z3/z/4 G/4z/8 ^A/8B3/4z |z2z3/8 A,/4A,3/8- A, | A,3/ A,/8B,/8C/4 [^C/-D/-][C/8D/8]^F,3/8z/z/8 A,3/8 | z4 |z3/z/4 D/4z/8 F/8^F/A/4z | A,z2z3/8 A,/-A,/8 | A,3/ A,/8B,/8C/4 [^C/-D/-][C/8D/8]^F,3/8z/z/8 A,3/8 | z4|]
[V: P12]  z4 | [M: 4/4]  B, B,3/4B,/4 B, B,3/4B,/4 | B, B,3/4B,/4 B, B,3/4B,/4 | B, B,3/4B,/4 B, B,3/4B,/4 | B, B,3/4B,/4 B, B,3/4B,/4 | B, B,3/4B,/4 B, B,3/4B,/4 | B, B,3/4B,/4 B, B,3/4B,/4 | B, B,3/4B,/4 B, B,3/4B,/4 | B, B,3/4B,/4 B, B,3/4B,/4 | B, B,3/4B,/4 B, B,3/4B,/4 | B, B,3/4B,/4 B, B,3/4B,/4 | B, B,3/4B,/4 B, B,3/4B,/4 | B, B,3/4B,/4 B, B,3/4B,/4 | B, B,3/4B,/4 B, B,3/4B,/4 | B, B,3/4B,/4 B, B,3/4B,/4 | B, B,3/4B,/4 B, B,3/4B,/4 | B, B,3/4B,/4 B, B,3/4B,/4 | B, B,3/4B,/4 B, B,3/4B,/4 | B, B,3/4B,/4 B, B,3/4B,/4 | B, B,3/4B,/4 B, B,3/4B,/4 | B, B,3/4B,/4 B, B,3/4B,/4 | B, B,3/4B,/4 B, B,3/4B,/4 | B, B,3/4B,/4 B, B,3/4B,/4 | B, B,3/4B,/4 B, B,3/4B,/4 | B, B,3/4B,/4 B, B,3/4B,/4 | B, B,3/4B,/4 B, B,3/4B,/4 | B, B,3/4B,/4 B, B,3/4B,/4 | ^C,/8B,3/4-B,/8 B,3/4B,/4 B, [B,,3/4B,3/4][B,,/4B,/4] | B, B,3/4B,/4 B, B,3/4B,/4 | B, B,3/4B,/4 B, [B,,3/4B,3/4][B,,/4B,/4] | B, B,3/4B,/4 B, B,3/4B,/4 | B, B,3/4B,/4 B, [B,,3/4B,3/4][B,,/4B,/4] | B, B,3/4B,/4 B, B,3/4B,/4 | B, B,3/4B,/4 B, [B,,3/4B,3/4][B,,/4B,/4] | B, B,3/4B,/4 B, B,3/4B,/4 | B, B,3/4B,/4 B, [B,,3/4B,3/4][B,,/4B,/4] | B, B,3/4B,/4 B, B,3/4B,/4 | B, B,3/4B,/4 B, [B,,3/4B,3/4][B,,/4B,/4] | B, B,3/4B,/4 B, B,3/4B,/4 | B, B,3/4B,/4 B, [B,,3/4B,3/4][B,,/4B,/4] | B, B,3/4B,/4 B, B,3/4B,/4 | B, B,3/4B,/4 B, [B,,3/4B,3/4][B,,/4B,/4] | B, B,3/4B,/4 B, B,3/4[^C,/4B,/4] | B, B,3/4B,/4 B, [B,,3/4B,3/4][B,,/4B,/4] | B, B,3/4B,/4 B, B,3/4B,/4 | B, B,3/4B,/4 B, [B,,3/4B,3/4][B,,/4B,/4] | B, B,3/4B,/4 B, B,3/4B,/4 | B, B,3/4B,/4 B, [B,,3/4B,3/4][B,,/4B,/4] | B, B,3/4B,/4 B, B,3/4B,/4 | B, B,3/4B,/4 B, [B,,3/4B,3/4][B,,/4B,/4] | B, B,3/4B,/4 B, B,3/4B,/4 | B, B,3/4B,/4 B, [B,,3/4B,3/4][B,,/4B,/4] | B, B,3/4B,/4 B, B,3/4B,/4 | B, B,3/4B,/4 B, [B,,3/4B,3/4][B,,/4B,/4] | B, B,3/4B,/4 B, B,3/4B,/4 | B, B,3/4B,/4 B, [B,,3/4B,3/4][B,,/4B,/4] | B, B,3/4B,/4 B, B,3/4B,/4 | B, B,z2|]
[V: P13]  z4 | [M: 4/4] z2z3/4 B,,,/8D,,/8 [D,,3/4^G,,3/4]D,,/4 | D,,z3/z/4 D,,/4 [D,,3/8^G,,3/8]D,,3/8^D,,/8B,,,/8 | B,,,z2 ^G,,3/4[B,,,/4D,,/4] | D,,3/8D,,3/8^D,,/4z3/4 =D,,/4z/4 D,,/8D,,3/8^D,,/4 [=D,,3/8^G,,3/8]D,,3/8^D,,/4 |z2z3/4 B,,,/8D,,/8 [D,,3/4^G,,3/4]D,,/4 | D,,z3/z/4 D,,/4 [D,,3/8^G,,3/8]D,,3/8^D,,/8B,,,/8 | B,,,z2 ^G,,3/4[B,,,/4D,,/4] | D,,3/8D,,3/8^D,,/4z3/4 =D,,/4z/4 D,,/8D,,3/8^D,,/4 [=D,,3/8^G,,3/8]D,,3/8^D,,/4 |z2z3/4 B,,,/8D,,/8 [D,,3/4^G,,3/4]D,,/4 | D,,z3/z/4 D,,/4 [D,,3/8^G,,3/8]D,,3/8^D,,/8B,,,/8 | B,,,z2 ^G,,3/4[B,,,/4D,,/4] | D,,3/8D,,3/8^D,,/4z3/4 =D,,/4z3/8 D,,3/8^D,,/4 ^G,,3/8=D,,3/8^D,,/4 |z2z3/4 B,,,/8D,,/8 [D,,3/4^G,,3/4]D,,/4 | D,,z3/z/4 D,,/4 [D,,3/8^G,,3/8]D,,3/8^D,,/8B,,,/8 | B,,,z3/z/4 ^D,,/4 ^G,,3/4B,,,/4 |z3/8 D,,3/8^D,,/4z3/4 =D,,/4z3/8 D,,3/8^D,,/4 ^G,,3/8=D,,3/8^D,,/4 |z2z3/4 B,,,/4 ^G,, | D,,z3/z/4 D,,/4 [D,,3/8^G,,3/8]D,,3/8^D,,/8B,,,/8 | B,,,z2 ^G,,3/4[B,,,/4D,,/4] | D,,3/8D,,3/8^D,,/4z3/4 =D,,/4z/4 D,,/8D,,3/8^D,,/4 [=D,,3/8^G,,3/8]D,,3/8^D,,/4 |z2z3/4 B,,,/8D,,/8 [D,,3/4^G,,3/4]D,,/4 | D,,z3/z/4 D,,/4 [D,,3/8^G,,3/8]D,,3/8^D,,/8B,,,/8 | B,,,z2 ^G,,3/4[B,,,/4D,,/4] | D,,3/8D,,3/8^D,,/4z3/4 =D,,/4z/4 D,,/8D,,3/8^D,,/4 [=D,,3/8^G,,3/8]D,,3/8^D,,/4 |z2z3/4 B,,,/8D,,/8 [D,,3/4^G,,3/4]D,,/4 |z2z/ ^D,,/4D,,/8[=D,,/8_E,,/8] [B,,,3/4D,,3/4^G,,3/4][D,,/4^A,,/4] | B,,, ^C,,z ^G,, |z ^C,,z [^G,,3/4A,,3/4]A,,/4 | B,,, ^C,,z ^G,, |z ^C,,z [^G,,3/4A,,3/4]A,,/4 | B,,, ^C,,z ^G,, |z ^C,,z [^G,,3/4A,,3/4]A,,/4 | B,,, ^C,,z ^G,, |z ^C,,z [^G,,3/4A,,3/4]A,,/4 | B,,, ^C,,z ^G,, |z ^C,,z [^G,,3/4A,,3/4]A,,/4 | B,,, ^C,,z ^G,, |z ^C,,z [^G,,3/4A,,3/4]A,,/4 | B,,, ^C,,z ^G,, |z ^C,,z [^G,,3/4A,,3/4]A,,/4 | B,,, ^C,,z ^G,, |z ^C,,z [^G,,3/4A,,3/4][E,,/4A,,/4] | B,,, ^C,,z ^G,, |z ^C,,z [^G,,3/4A,,3/4]A,,/4 | B,,, ^C,,z ^G,, |z ^C,,z [^G,,3/4A,,3/4]A,,/4 | B,,, ^C,,z ^G,, |z ^C,,z [^G,,3/4A,,3/4]A,,/4 | B,,, ^C,,z ^G,, |z ^C,,z [^G,,3/4A,,3/4]A,,/4 | B,,, ^C,,z ^G,, |z ^C,,z [^G,,3/4A,,3/4]A,,/4 | B,,, ^C,,z ^G,, |z ^C,,z [^G,,3/4A,,3/4]A,,/4 | B,,, ^C,,z ^G,, |z ^C,,z [^G,,3/4A,,3/4]A,,/4 | B,,, ^C,,z2|]
[V: P14]  z4 | [M: 4/4]  D3/- D3/8A/8- A3/ A3/8^F/8- | ^F3 F3/4G/4- | G3/ G/8B3/8- B3/ [D/-^F/-] | [D3/^F3/] [D/4F/4]A/4- A3/ A/8A/8D/4- | D3z3/4z/8 [G/8-B/8-] | [G3B3]z3/4z/8 [D/8-^F/8-] | [D3/4^F3/4]A/4- A3 | D2- D/4[^F3/4-A3/4-] [FA] |z/4 [D3/4-^F3/4-] [DF] [D/4F/4]A3/4- A |z/8 [D3/4-^F3/4-][D/8F/8] [DF] [D/8F/8]A3/4-A/8 A |z/8 E3/4-E/8 E [^G2B2] |z/8 A,3/4-A,/8 A, ^C/8[E3/4-G3/4-][E/8G/8] [EG] |z/8 D3/4-D/8 D D/8^F3/4-F/8 F | A3z | A,2 [E2G2] |z/8 A,3/4-A,/8 A, A,/8G3/4-G/8 G |z/4 A,3/4- A, A,3/8G/-G/8 G | G3/8D/-D/8 D D3/8^F/-F/8 F | ^F/F/8A3/8- A3 |z3/4 [G/4-B/4-] [G3B3] |z D2 ^F- | ^F F/8A3/4-A/8 Az/8 B/8G3/4- | G G3/8D/-D/8 D3/ D/4[^F/4-A/4-] | [^FA]z3/4z/8 F/8 D2- | D3z |z2z/8 D3/4-D/8 D | D/4A3/4- A A/4^F3/4- F | ^F3/8A/-A/8 A3 |z3/4 [G/4-B/4-] [G3B3] |z ^F/8[D3/4-A3/4-][D/8A/8] [D2A2] | [DA]z3/8 [D/-^F/-][D/8F/8] [DF]z3/8 A,/-A,/8 | A,z/ [G/-B/-] [G2B2] | [GB]z3/8 ^F/8D/- D3/ D/4A/4- | A3/ A3/8D/8- D2 | D/8A/8^F3/4- F F/4A3/4- A |z3/8 A/-A/8 Az/ [D/-A/-] [DA] | [D2A2]z3/4 [^G/4B/4] E- | E3z/4 A,3/4- | A, A,3/8[E/-G/-][E/8G/8] [EG]z/ [D/-^F/-] | [D3/^F3/] A/- A3/ A/8F3/8- | ^F3/ F/4A/4- Az3/4z/8 A,/8- | A,2 [^C2E2G2] |z/8 [^C/8E/8]A,3/4- A,3/ G/- G | G/G/8A,3/8- A,3/ A,/4[E/4-G/4-] [EG] | [E3/4G3/4][E/8G/8]D/8- D2 D/8A3/4-A/8 | A3/ A/8D3/8- D3/ D/4[^F/4-A/4-] | [^FA]zz/4 [G3/4-B3/4-] [GB] | [GB]z3/z3/8 [D/8-^F/8-] [DF] | [D^F] [D/8F/8]A3/4-A/8 A2 | Az/ [G/-B/-] [GB]z3/4 D/4- | D2 D3/8A/8^F/- F |z [D3-^F3-A3-] | [D^FA]z/8 [D3/4-F3/4-][D/8F/8] [DF] [D/4F/4]A3/4- | A4 |z/ A,/- A,2z | z4 | z4|]
[V: P15]  z4 | [M: 4/4]  z4|]

